X: 1
T: Ripple
C: music: Jerry Garcia
C: words: Robert Hunter
R: air
Z: 2020 John Chambers <jc:trillian.mit.edu>
M: C
L: 1/8
K: G
%%continueall
"G"z8 | "D"z8 | "C"z8 | "Am"z4 "G"z4 [| "G"z2B,>B, B,2C>D- |: D2z2 z4 | z2GG (3(B2A2)B2 | "C"G4 E4 |
w: 1.~If my words did glow* with the gold* of sun-shine
w: | | | | | ~ if your cup* be emp-ty,
z4 zE EG- | Gz z4 AG- | G2z2 (D>E)E>G- | G2z2 (DE2)D- | "G"D2B,>B, C2^CD- |
w: and my tunes* were played* on* the harp* un-*strung,* Would you hear my voice
w: if your cup* is full,* may* it be* a-*gain.* Let it* be known
D z7 | z2G2 (3(B2A2B2) | "C"G4 E2z2 |
w: | come through* the mu-sic?
w: | there is* a foun-tain
z4 zG AB- | "G"B4 c3A- | "D"A2 z6 | "C"EG2G- GA2G- |
w: Would you hold* it near,* as it were* your own?
w: ~ that was* not made* by the hands* of men.
Gz B,>B, B,2C>D- || D2 z6 | z2G2 (3(B2A2B2) |
w: ~ It's a hand-me-down,* the thoughts* are
w: ~ There* is a road,* no sim-*ple
"C"G4 E2z2 | z6 E>G- | G2 z4 A2 | GE3 E2E2 |
w: bro-ken; per-haps* they're bet-ter**
w: high-way be-tween* the dawn* and the
G4 E3D- | "G"D2B,2 B,C2D- | D2 z6 | z2G2 (3(B2A2B2) | "C"(G4 E2)z2 | z8 | "G"B2z2 B2cA- | "D"A2 z6 |
w: left un-sung.* ~ I don't know,* don't real-*ly care.* Let there be songs*
w: dark of night.* And if you go,* no one* may fol-low, That path is for*
"C"z2EG- G2AG- | "G"G8 | "F#"z4 "G7"z4 | "Am"A4- AG3 | AG3- GA3 | (FE3) D- D4 | z4 EF2G- | "G"GA3 G2DE- |
w: to fill* the air.* Rip-*ple in** still wa-*ter;* when there is* no peb-ble tossed,
w: your steps* a-lone.* 
"C"E2 z4 G2 | "A"G4 F3D- |[1 "D"D2B,C- C^C2D- :||2 "D"D2z B,C2D- | "G"D2 z6 | z2GB- (3(B2A2)B2 |
w: ~ nor wind to blow.* 2.~Reach out* your hand.* You who choose* to lead** must
"C"G4 E2z2 | z6 EG- | G2 z4 A2 | G2z2 E4 | G4 E3D- | "G"D2B,2 C^C2D- | D2 z6 |
w: fol-low, but if* you fall, you fall a-lone.* If you should stand,*
z2G2 (3B2A2B2 | "C"G4 E2z2 | z8 | "G"BB3 (Bc2)A | "D"A4 | "C"EG2G- GA2G- |
w: then who's* to guide you? If I knew* the way I would take* you home.
"G"G2 B,>B,B,C2D- | D2 z6 | z2G2 (3(B2A2)B2 | "C"G4 E2z2 | z4 zE (3EFG- | G2 z4 A2 | G2z2 zGAG- | G4 E3D- |
w: ~ La dee da da da,*  la da* da da da,  da da da da,*  da da,  da da da,* da da,*
D2B,2 B,C2D- | D4 z6 | z2G2 (3(B2A2)B2 | "C"G4 E2z2 | z4 | B4 B2cA- | "D"A2 z6 | "C"EG2G- GA3 | "G"HG4 |]
w: ~ La da da da,* la da* da da da, La da da da,* la da da* da da.
